!!!COM: Anon.
!!!OTL: Suiryo-Bushi
!!!OTC: Japanese Popular Music: A Collection of The Popular Music of Japan Rendered in to the Staff notation.
!!!CNT: Nippon, Japanese
!!!TXO: Nippon, Japan
!!!OCY: Nippon, Japan
!!!ODT: <1892///
!!!PSR: S. Miki & Co.
!!!PSP: Osaka, Nippon
!!!PDT: 1892///
!!!PPE: Y Nagai & K. Kobatake
!!!PED: Revised Second Edition
!!!PPG: page 10
!! Allegro
**kern	**silbe
*ICstr	*Lnippon
*ICvox	*
*Ikoto	*
*Ivox	*
*clefG2	*
*k[]	*
*M2/4	*
8ee	a
8ee	ra
=1	=1
4dd	sui
4cc	ryo
=2	=2
4dd	sui
[4dd	ryo
=3	=3
4dd]	|
8r	.
8cc	o
=4	=4
4dd	o
4cc	|
=5	=5
4a	|
4g	|
=6	=6
8a	|
8cc	|
[4dd	te
=7	=7
4dd]	|
8ee	a
8ee	ra
=8	=8
4dd	sui
4cc	ryo
=9	=9
4dd	sui
[4dd	ryo
=10	=10
4dd]	|
8cc	u-
8dd	-re
=11	=11
4ee	shi
8dd	ya
8cc	|
=12	=12
4a	|
8dd	wa
8cc	ka
=13	=13
4a	re
8cc	no
8dd	|
=14	=14
8g	tsu
4g	|
8e	ra
=15	=15
4d	sa
8r	.
8cc	assa
=16	=16
8ee	no
8ee	|
8dd	yo
8cc	ya
=17	=17
8a	sa
8cc	no
[4dd	se
=18	=18
4dd]	|
8r	.
8e	o
=19	=19
4g	|
8e	|
8g	|
=20	=20
4a	te
8ee	ko
8cc	ra
=21	=21
8dd	sho
8r	.
8cc	wa
8dd	ka
=22	=22
4ee	re
8dd	ga
8cc	|
=23	=23
4a	ji
8dd	tsu
8cc	|
=24	=24
4a	na
8cc	kya
8dd	|
=25	=25
4g	yo
8g	|
8e	|
=26	=26
4d	i
4r	.
=27	=27
4.d	yon
8f	|
=28	=28
2g	sa
=29	=29
4.a	yo
8f	iya
=30	=30
4g;	sa
8cc	chi-
8a	yo
=31	=31
8cc	it-
8dd	-sa
4ee	ra
.	sa
=32	=32
8dd	ko
8cc	ra
4a	sa
=33	=33
8r	.
4a	ya
8cc	to
=34	=34
[2dd	se
=35	=35
4dd]	|
8ee	se
8cc	no
=36	=36
4dd	e
8ee	a-
8ee	-ra
=37	=37
4dd	sui
4cc	ryo
=38	=38
4dd	sui
[4dd	ryo
=39	=39
4dd]	|
4r	.
==	==
*-	*-
!!!ENC: David Huron
!!!RDT: 2000/1/30
!!!EEV: Release 1.0
!!!ELF: 4/28
!!!YER: 2000/2/1
!!!YEM: Copyright David Huron, 2000
!!!YEN: United States of America
